public/img/countries-bg-mobile.svg

<svg width="375" height="514" viewBox="0 0 375 514" fill="none" xmlns="http://www.w3.org/2000/svg">
<rect width="375" height="514" fill="#262626"/>
<mask id="mask0" mask-type="alpha" maskUnits="userSpaceOnUse" x="0" y="0" width="375" height="514">
<rect width="375" height="514" fill="#262626"/>
</mask>
<g mask="url(#mask0)">
<g opacity="0.1">
<path d="M352.419 13.3902C347.779 169.105 298.841 290.931 240.783 290.931L-24.2434 290.931C-92.6928 290.931 -148.177 440.725 -148.177 625.523L119.392 625.523C132.961 625.352 332.875 612.14 352.419 13.3902Z" fill="url(#paint0_radial)"/>
<path d="M352.412 13.3902C332.869 612.14 132.955 625.352 119.354 625.523L237.758 625.523C296.452 625.523 353.715 569.93 397.537 464.49C443.392 354.246 471.325 202.049 475.996 37.5839C476.123 33.2084 476.187 28.9187 476.187 24.6291C476.187 -64.2525 450.129 -139.15 416.318 -142.41C383.3 -145.413 355.05 -75.6629 352.412 13.3902Z" fill="url(#paint1_linear)"/>
<path d="M158.956 625.523L237.797 625.523C296.49 625.523 353.754 569.93 397.575 464.49C443.431 354.246 471.363 202.049 476.035 37.5839C476.162 33.2084 476.225 28.9187 476.225 24.6291C476.225 -64.2525 450.168 -139.15 416.356 -142.41C416.356 507.472 240.275 611.882 158.956 625.523Z" fill="url(#paint2_radial)"/>
<path d="M278.122 459.428L-25.1967 459.428C-59.6756 459.428 -92.9788 493.488 -118.814 555.259L-148.177 625.523L118.629 625.523L119.36 625.523C128.068 625.438 212.946 619.947 278.122 459.428Z" fill="url(#paint3_linear)"/>
<path d="M-5.30859 625.523L118.625 625.523L118.625 192.183C118.625 7.38475 63.1407 -142.41 -5.30862 -142.41L-5.30859 625.523Z" fill="url(#paint4_radial)"/>
<path d="M20.7174 -63.0512L-5.30862 -142.41L-5.30859 625.523L56.2132 625.523L56.2132 189.695C56.2132 96.6095 43.5974 6.69848 20.7174 -63.0512Z" fill="url(#paint5_linear)"/>
</g>
</g>
<defs>
<radialGradient id="paint0_radial" cx="0" cy="0" r="1" gradientUnits="userSpaceOnUse" gradientTransform="translate(-60.9925 409.165) rotate(-90) scale(980.525 363.187)">
<stop offset="0.0726" stop-color="#43C8EF"/>
<stop offset="0.2006" stop-color="#3EBAE3"/>
<stop offset="0.4434" stop-color="#2F94C4"/>
<stop offset="0.7727" stop-color="#195992"/>
<stop offset="0.9578" stop-color="#0B3474"/>
</radialGradient>
<linearGradient id="paint1_linear" x1="297.785" y1="625.541" x2="297.785" y2="-142.4" gradientUnits="userSpaceOnUse">
<stop stop-color="#6F010E"/>
<stop offset="0.00749512" stop-color="#740310"/>
<stop offset="0.077" stop-color="#A21321"/>
<stop offset="0.1434" stop-color="#C7202E"/>
<stop offset="0.2053" stop-color="#E12938"/>
<stop offset="0.2608" stop-color="#F02F3E"/>
<stop offset="0.3045" stop-color="#F63140"/>
<stop offset="0.3422" stop-color="#F73E43"/>
<stop offset="0.4966" stop-color="#F96C4E"/>
<stop offset="0.6442" stop-color="#FB9057"/>
<stop offset="0.7813" stop-color="#FCAB5E"/>
<stop offset="0.9039" stop-color="#FDBA62"/>
<stop offset="1" stop-color="#FDC063"/>
</linearGradient>
<radialGradient id="paint2_radial" cx="0" cy="0" r="1" gradientUnits="userSpaceOnUse" gradientTransform="translate(469.496 -75.8792) rotate(-90) scale(949.93 351.854)">
<stop stop-color="white" stop-opacity="0.4"/>
<stop offset="0.0477" stop-color="#FCEAE8" stop-opacity="0.4418"/>
<stop offset="0.16" stop-color="#F7BCB9" stop-opacity="0.5402"/>
<stop offset="0.272" stop-color="#F29791" stop-opacity="0.6385"/>
<stop offset="0.3818" stop-color="#EF7A73" stop-opacity="0.7347"/>
<stop offset="0.4885" stop-color="#EC655D" stop-opacity="0.8282"/>
<stop offset="0.591" stop-color="#EB584F" stop-opacity="0.9181"/>
<stop offset="0.6844" stop-color="#EA544B"/>
<stop offset="1" stop-color="#EA544B" stop-opacity="0.2"/>
</radialGradient>
<linearGradient id="paint3_linear" x1="-148.944" y1="542.495" x2="278.087" y2="542.495" gradientUnits="userSpaceOnUse">
<stop stop-color="white" stop-opacity="0.8"/>
<stop offset="0.1162" stop-color="white" stop-opacity="0.7129"/>
<stop offset="1" stop-color="white" stop-opacity="0.05"/>
</linearGradient>
<radialGradient id="paint4_radial" cx="0" cy="0" r="1" gradientUnits="userSpaceOnUse" gradientTransform="translate(49.2955 39.7442) rotate(-90) scale(616.141 228.219)">
<stop stop-color="#16C940"/>
<stop offset="0.3403" stop-color="#0D9733"/>
<stop offset="0.7565" stop-color="#045F24"/>
<stop offset="0.9578" stop-color="#00491E"/>
</radialGradient>
<linearGradient id="paint5_linear" x1="25.4513" y1="625.541" x2="25.4512" y2="-142.4" gradientUnits="userSpaceOnUse">
<stop stop-color="white" stop-opacity="0.1"/>
<stop offset="1" stop-color="white" stop-opacity="0.6"/>
</linearGradient>
</defs>
</svg>

<svg width="375" height="514" viewBox="0 0 375 514" fill="none" xmlns="http://www.w3.org/2000/svg"><path fill="#262626" d="M0 0h375v514H0z"/><mask id="mask0" maskUnits="userSpaceOnUse" x="0" y="0" width="375" height="514"><path fill="#262626" d="M0 0h375v514H0z"/></mask><g opacity=".1" mask="url(#mask0)"><path d="M352.419 13.39c-4.64 155.715-53.578 277.541-111.636 277.541H-24.243c-68.45 0-123.934 149.794-123.934 334.592h267.569c13.569-.171 213.483-13.383 233.027-612.133z" fill="url(#paint0_radial)"/><path d="M352.412 13.39c-19.543 598.75-219.457 611.962-233.058 612.133h118.404c58.694 0 115.957-55.593 159.779-161.033 45.855-110.244 73.788-262.441 78.459-426.906.127-4.376.191-8.665.191-12.955 0-88.881-26.058-163.779-59.869-167.039-33.018-3.003-61.268 66.747-63.906 155.8z" fill="url(#paint1_linear)"/><path d="M158.956 625.523h78.841c58.693 0 115.957-55.593 159.778-161.033 45.856-110.244 73.788-262.441 78.46-426.906.127-4.376.19-8.665.19-12.955 0-88.881-26.057-163.779-59.869-167.039 0 649.882-176.081 754.292-257.4 767.933z" fill="url(#paint2_radial)"/><path d="M278.122 459.428H-25.197c-34.479 0-67.782 34.06-93.617 95.831l-29.363 70.264H119.36c8.708-.085 93.586-5.576 158.762-166.095z" fill="url(#paint3_linear)"/><path d="M-5.309 625.523h123.934v-433.34c0-184.798-55.484-334.593-123.934-334.593v767.933z" fill="url(#paint4_radial)"/><path d="M20.717-63.051L-5.309-142.41v767.933h61.522V189.695c0-93.085-12.616-182.997-35.496-252.746z" fill="url(#paint5_linear)"/></g><defs><radialGradient id="paint0_radial" cx="0" cy="0" r="1" gradientUnits="userSpaceOnUse" gradientTransform="scale(363.187 980.525) rotate(-90 .125 .293)"><stop offset=".073" stop-color="#43C8EF"/><stop offset=".201" stop-color="#3EBAE3"/><stop offset=".443" stop-color="#2F94C4"/><stop offset=".773" stop-color="#195992"/><stop offset=".958" stop-color="#0B3474"/></radialGradient><radialGradient id="paint2_radial" cx="0" cy="0" r="1" gradientUnits="userSpaceOnUse" gradientTransform="matrix(0 -949.93 351.854 0 469.496 -75.88)"><stop stop-color="#fff" stop-opacity=".4"/><stop offset=".048" stop-color="#FCEAE8" stop-opacity=".442"/><stop offset=".16" stop-color="#F7BCB9" stop-opacity=".54"/><stop offset=".272" stop-color="#F29791" stop-opacity=".638"/><stop offset=".382" stop-color="#EF7A73" stop-opacity=".735"/><stop offset=".488" stop-color="#EC655D" stop-opacity=".828"/><stop offset=".591" stop-color="#EB584F" stop-opacity=".918"/><stop offset=".684" stop-color="#EA544B"/><stop offset="1" stop-color="#EA544B" stop-opacity=".2"/></radialGradient><radialGradient id="paint4_radial" cx="0" cy="0" r="1" gradientUnits="userSpaceOnUse" gradientTransform="matrix(0 -616.141 228.219 0 49.295 39.744)"><stop stop-color="#16C940"/><stop offset=".34" stop-color="#0D9733"/><stop offset=".756" stop-color="#045F24"/><stop offset=".958" stop-color="#00491E"/></radialGradient><linearGradient id="paint1_linear" x1="297.785" y1="625.541" x2="297.785" y2="-142.4" gradientUnits="userSpaceOnUse"><stop stop-color="#6F010E"/><stop offset=".007" stop-color="#740310"/><stop offset=".077" stop-color="#A21321"/><stop offset=".143" stop-color="#C7202E"/><stop offset=".205" stop-color="#E12938"/><stop offset=".261" stop-color="#F02F3E"/><stop offset=".304" stop-color="#F63140"/><stop offset=".342" stop-color="#F73E43"/><stop offset=".497" stop-color="#F96C4E"/><stop offset=".644" stop-color="#FB9057"/><stop offset=".781" stop-color="#FCAB5E"/><stop offset=".904" stop-color="#FDBA62"/><stop offset="1" stop-color="#FDC063"/></linearGradient><linearGradient id="paint3_linear" x1="-148.944" y1="542.495" x2="278.087" y2="542.495" gradientUnits="userSpaceOnUse"><stop stop-color="#fff" stop-opacity=".8"/><stop offset=".116" stop-color="#fff" stop-opacity=".713"/><stop offset="1" stop-color="#fff" stop-opacity=".05"/></linearGradient><linearGradient id="paint5_linear" x1="25.451" y1="625.541" x2="25.451" y2="-142.4" gradientUnits="userSpaceOnUse"><stop stop-color="#fff" stop-opacity=".1"/><stop offset="1" stop-color="#fff" stop-opacity=".6"/></linearGradient></defs></svg>
